assets/svg/icon-large-resource-compass-dark-gray.svg

<?xml version="1.0" encoding="UTF-8" standalone="no"?>
<svg width="79px" height="79px" viewBox="0 0 79 79" version="1.1" xmlns="http://www.w3.org/2000/svg" xmlns:xlink="http://www.w3.org/1999/xlink">
    <!-- Generator: Sketch 3.8.3 (29802) - http://www.bohemiancoding.com/sketch -->
    <title>dark gray/icon-large-resource-compass-dark-gray</title>
    <desc>Created with Sketch.</desc>
    <defs></defs>
    <g id="gray" stroke="none" stroke-width="1" fill="none" fill-rule="evenodd">
        <g id="icons,-large-detailed-(gray)" transform="translate(-82.000000, -911.000000)">
            <g id="dark-gray/icon-large-resource-compass-dark-gray" transform="translate(82.000000, 911.000000)">
                <g id="icon-resource-compass" transform="translate(4.340659, 4.340659)">
                    <g id="Page-1">
                        <g id="icon-resource-compass"></g>
                    </g>
                </g>
                <g id="Group-4" fill="#242F36">
                    <path d="M38.2351047,4.2352626 L31.5290053,29.1471572 L33.1241216,28.4921665 L24.6532591,23.5451236 L21.4098839,21.6509698 L23.1433203,24.9830112 L27.5552278,33.4636561 L28.2399274,31.913881 L4.23915038,38.2743647 L0.410188073,39.2890841 L4.2217019,40.367495 L28.5754315,47.258019 L27.9383168,45.658924 L22.9969804,53.9628889 L21.1577271,57.0537722 L24.3995539,55.4958984 L33.223369,51.255576 L31.7018733,50.5458005 L37.8785439,74.7509746 L38.8809252,78.6791128 L39.9749208,74.7754976 L46.8574965,50.2169629 L45.25096,50.8526486 L53.7218225,55.9763715 L57.1866284,58.0721092 L55.2341369,54.5246068 L50.4692766,45.8672819 L49.7961654,47.4395884 L74.5028476,40.9024246 L78.3635471,39.8809185 L74.5167946,38.8080857 L49.8101124,31.9175616 L50.4646578,33.4943841 L55.229518,25.0137391 L57.0452764,21.7819965 L53.7733867,23.5243732 L45.4790004,27.9413757 L47.0353763,28.6114118 L40.3292769,4.22955749 L39.271708,0.384477163 L38.2351047,4.2352626 L38.2351047,4.2352626 Z M40.3308293,4.79941629 L38.2366572,4.8051214 L44.9427566,29.1869757 L45.3023399,30.4943387 L46.4991325,29.8570118 L54.7935188,25.4400092 L53.3373874,23.9506433 L48.5725272,32.4312883 L47.8952755,33.6366816 L49.2270726,34.0081107 L73.9337548,40.8986348 L73.9477018,38.8042959 L49.2410196,45.3414597 L47.8980998,45.6967841 L48.5679083,46.9137662 L53.3327686,55.5710911 L54.845083,54.1193263 L46.3742204,48.9956034 L45.1528721,48.2568533 L44.7676839,49.631289 L37.8851081,74.1898237 L39.981485,74.2143466 L33.8048144,50.0091724 L33.4772812,48.7256331 L32.2833187,49.2993969 L23.4595037,53.5397193 L24.8620773,55.0727288 L29.8034137,46.7687639 L30.5260379,45.5543867 L29.166299,45.1696689 L4.81256939,38.2791448 L4.7951209,40.372275 L28.7958979,34.0117913 L30.1061935,33.6645478 L29.4805974,32.4620162 L25.0686899,23.9813712 L23.558751,25.4192588 L32.0296136,30.3663017 L33.2556634,31.0823234 L33.6247299,29.7113109 L40.3308293,4.79941629 L40.3308293,4.79941629 Z" id="Path-15"></path>
                    <path d="M43.3319268,67.6570359 C55.5919857,65.8945207 65.3084115,56.2467633 67.1892174,44.0118606 L64.9585322,44.4973522 C62.9790999,55.1307942 54.5718856,63.5009349 43.9265138,65.4133117 L43.3319268,67.6570359 L43.3319268,67.6570359 Z M35.1250627,67.6411565 C22.7891583,65.8185054 13.0507408,56.0089521 11.3206199,43.6295546 L13.5249313,44.0308014 C15.3349869,54.8425644 23.7719693,63.4053301 34.5118363,65.3900632 L35.1250627,67.6411565 L35.1250627,67.6411565 Z M67.2087769,35.4707269 C65.3759595,23.1692912 55.6267388,13.4566904 43.3160542,11.6940472 L43.8152511,13.9203103 C54.5591371,15.8022076 63.0447016,24.2576215 64.9837236,34.9933792 L67.2087769,35.4707269 L67.2087769,35.4707269 Z M11.3405624,35.583672 C13.1215372,23.2896969 22.805378,13.5584588 35.0674085,11.7207832 L34.566833,13.9531946 C23.8999047,15.9007176 15.4941044,24.3350334 13.5767004,35.0239919 L11.3405624,35.583672 L11.3405624,35.583672 Z" id="Oval-3"></path>
                    <ellipse id="Oval-5" cx="39.1064907" cy="39.8533602" rx="3.70600233" ry="3.71028218"></ellipse>
                </g>
                <polygon id="Path-25" fill="#242F36" points="38.6318681 48.3983516 38.6318681 59.4691603 39.5 59.4691603 39.5 48.3983516"></polygon>
                <polygon id="Path-25" fill="#242F36" points="38.6318681 20.1840659 38.6318681 31.2548748 39.5 31.2548748 39.5 20.1840659"></polygon>
            </g>
        </g>
    </g>
</svg>

<svg width="79" height="79" viewBox="0 0 79 79" xmlns="http://www.w3.org/2000/svg"><title>dark gray/icon-large-resource-compass-dark-gray</title><g fill="none" fill-rule="evenodd"><g fill="#242F36"><path d="M38.235 4.235L31.53 29.147l1.595-.655-8.47-4.947-3.244-1.894 1.733 3.332 4.412 8.48.685-1.55-24 6.361L.41 39.29l3.812 1.078 24.353 6.891-.637-1.6-4.941 8.305-1.84 3.09 3.243-1.557 8.823-4.24-1.521-.71 6.177 24.205 1.002 3.928 1.094-3.904 6.882-24.558-1.606.636 8.47 5.123 3.466 2.096-1.953-3.547-4.765-8.658-.673 1.573 24.707-6.538 3.86-1.021-3.846-1.073-24.707-6.89.655 1.576 4.765-8.48 1.815-3.232-3.272 1.742-8.294 4.417 1.556.67L40.33 4.23 39.272.384l-1.037 3.851zm2.096.564l-2.094.006 6.706 24.382.36 1.307 1.196-.637 8.295-4.417-1.457-1.49-4.764 8.481-.678 1.206 1.332.371 24.707 6.89.014-2.094-24.707 6.537-1.343.356.67 1.217 4.765 8.657 1.512-1.452-8.47-5.123-1.222-.74-.385 1.375-6.883 24.559 2.096.024-6.176-24.205-.328-1.283-1.194.573-8.823 4.24 1.402 1.534 4.941-8.304.723-1.215-1.36-.384-24.353-6.89-.018 2.092 24-6.36 1.311-.347-.625-1.203-4.412-8.48-1.51 1.437 8.47 4.947 1.227.716.369-1.37L40.33 4.798z"/><path d="M43.332 67.657c12.26-1.762 21.976-11.41 23.857-23.645l-2.23.485c-1.98 10.634-10.387 19.004-21.032 20.916l-.595 2.244zm-8.207-.016C22.79 65.82 13.051 56.01 11.321 43.63l2.204.4c1.81 10.813 10.247 19.375 20.987 21.36l.613 2.251zm32.084-32.17c-1.833-12.302-11.582-22.014-23.893-23.777l.5 2.226c10.743 1.882 19.229 10.338 21.168 21.073l2.225.478zm-55.868.113C13.12 23.29 22.805 13.558 35.067 11.72l-.5 2.232C23.9 15.901 15.494 24.335 13.577 35.024l-2.236.56z"/><ellipse cx="39.106" cy="39.853" rx="3.706" ry="3.71"/></g><path fill="#242F36" d="M38.632 48.398V59.47h.868V48.4zM38.632 20.184v11.07h.868v-11.07z"/></g></svg>
